!!!COM: Honegger, Arthur
!!!OTL: Symphony No. 3 "Symphonie liturgique" (Liturgic Symphony)
!!!OMV: I: Dies Irae (Day of Wrath): Allegro marcato
!!!example: 598
!!!work: Hon-37
**kern	**kern	**kern	**kern	**kern	**kern	**dynam	**kern	**kern	**kern	**kern	**kern	**kern	**kern	**kern	**kern	**kern	**kern	**kern	**kern	**kern	**kern
*part20	*part19	*part18	*part17	*part16	*part15	*part15	*part14	*part13	*part13	*part12	*part11	*part10	*part9	*part8	*part7	*part6	*part5	*part4	*part3	*part2	*part1
*staff21	*staff20	*staff19	*staff18	*staff17	*staff16	*	*staff15	*staff14	*staff13	*staff12	*staff11	*staff10	*staff9	*staff8	*staff7	*staff6	*staff5	*staff4	*staff3	*staff2	*staff1
*I"Contrabass	*I"Violoncello	*I"Viola	*I"Violin II	*I"Violin I	*I"Bass Drum	*	*I"Cymbals	*I"Piano	*	*I"Tuba	*I"Trombone	*I"Trumpet in Bb 1	*I"Trumpet in Bb	*I"Horn in F 1	*I"Bassoon 1	*I"Bass Clarinet in Bb	*I"Clarinet in Bb 1	*I"Cor Anglais	*I"Oboe 1	*I"Flute 2	*I"Flute 1
*I'Cb.	*I'Vc.	*I'Vla.	*I'Vln. II	*I'Vln. I	*I'B. D.	*	*I'Cym.	*I'Pno.	*	*I'Tba.	*I'Tbn.	*I'Tpt.1	*I'Tpt.	*I'Hn. 1	*I'Bsn. 1	*I'B. Cl.	*I'Cl. 1	*I'C. A.	*I'Ob. 1	*I'Fl. 2	*I'Fl. 1
*clefF4	*clefF4	*clefC3	*clefG2	*clefG2	*clefpercussion0	*	*clefpercussion0	*clefF4	*clefG2	*clefF4	*clefF4	*clefG2	*clefG2	*clefG2	*clefF4	*clefG2	*clefG2	*clefG2	*clefG2	*clefG2	*clefG2
*k[]	*k[]	*k[]	*k[]	*k[]	*	*	*	*k[]	*k[]	*k[]	*k[]	*k[]	*k[]	*k[]	*k[]	*k[]	*k[]	*k[]	*k[]	*k[]	*k[]
*	*	*	*	*	*	*	*	*	*	*	*	*	*	*	*	*	*	*	*	*	*
*M4/4	*M4/4	*M4/4	*M4/4	*M4/4	*M4/4	*	*M4/4	*M4/4	*M4/4	*M4/4	*M4/4	*M4/4	*M4/4	*M4/4	*M4/4	*M4/4	*M4/4	*M4/4	*M4/4	*M4/4	*M4/4
*MM121	*MM121	*MM121	*MM121	*MM121	*MM121	*	*MM121	*MM121	*MM121	*MM121	*MM121	*MM121	*MM121	*MM121	*MM121	*MM121	*MM121	*MM121	*MM121	*MM121	*MM121
=5	=	=	=	=	=	=	=	=	=	=	=	=	=	=	=	=	=	=	=	=	=
4CCC	8G-X	8ccn	8ddd#X	8fff#X	1r	.	1r	2r	[4dddn [4eee-X [4gggn	2r	2r	8.ccL 8.dd-X	8.ff-XL	1r	1r	1r	8.cccL 8.ddd-X	8a-X	1eet	2.eeent	8.eee-XL
.	8r	8r	8r	8r	.	.	.	.	.	.	.	.	.	.	.	.	.	8r	.	.	.
.	.	.	.	.	.	.	.	.	.	.	.	16ccJk 16dd-	16ff-Jk	.	.	.	16cccJk 16ddd-	.	.	.	16eee-Jk
4r	4r	4r	4r	4r	.	.	.	.	4r	.	.	[4cc [4dd-	[4ff-	.	.	.	[4ccc [4ddd-	4r	.	.	[4eee-
4CC 4GG-X 4BB-X 4E-X	2r	2r	2r	2r	.	.	.	4CC 4GG-X 4BB-X 4E-X	2r	4CC	4GG-X 4BB-X 4E-X	8cc] 8dd-]	8ff-]	.	.	.	8cccL] 8ddd-]	2r	.	.	8eee-L]
.	.	.	.	.	.	.	.	.	.	.	.	8r	8r	.	.	.	8ccc 8ddd-	.	.	.	8eee-
4r	.	.	.	.	.	.	.	4r	.	4r	4r	16ccKL 16dd-	16ff-KL	.	.	.	8ccc 8ddd-	.	.	8eee	8eee-
.	.	.	.	.	.	.	.	.	.	.	.	[8.ccJ [8.dd-	[8.ff-J	.	.	.	.	.	.	.	.
.	.	.	.	.	.	.	.	.	.	.	.	.	.	.	.	.	[8cccJ [8ddd-	.	.	8r	[8eee-J
=6	=6	=6	=6	=6	=6	=6	=6	=6	=6	=6	=6	=6	=6	=6	=6	=6	=6	=6	=6	=6	=6
2r	1r	1r	1r	1r	8x	f	8x	2r	8dddL 8eee-X 8ggg	2r	2r	8cc] 8dd-]	8ff-]	1r	1r	1r	8cccL] 8ddd-]	1r	1eet	2.eeent	8eee-L]
.	.	.	.	.	8r	.	8r	.	[8dddJ [8eee- [8ggg	.	.	8r	8r	.	.	.	12ccc 12ddd-X	.	.	.	12eee-X
.	.	.	.	.	.	.	.	.	.	.	.	.	.	.	.	.	12ccc 12ddd-	.	.	.	12eee-
.	.	.	.	.	4r	.	4r	.	4r	.	.	8r	8r	.	.	.	.	.	.	.	.
.	.	.	.	.	.	.	.	.	.	.	.	.	.	.	.	.	12cccJ 12ddd-	.	.	.	12eee-J
.	.	.	.	.	.	.	.	.	.	.	.	4cc 4dd-X	4ff-X	.	.	.	4ccc 4ddd-	.	.	.	4eee-
4r	.	.	.	.	2r	.	2r	4r	2r	4r	4r	.	.	.	.	.	.	.	.	.	.
.	.	.	.	.	.	.	.	.	.	.	.	8r	8r	.	.	.	4ccc 4ddd-	.	.	.	4eee-
4CC 4GG-X 4BB-X 4E-X	.	.	.	.	.	.	.	4CC 4GG-X 4BB-X 4E-X	.	4CC	4GG-X 4BB-X 4E-X	4r	4r	.	.	.	.	.	.	8eee	.
.	.	.	.	.	.	.	.	.	.	.	.	.	.	.	.	.	8r	.	.	8r	8r
=7	=7	=7	=7	=7	=7	=7	=7	=7	=7	=7	=7	=7	=7	=7	=7	=7	=7	=7	=7	=7	=7
1r	1r	1r	1r	1r	1r	.	1r	1r	[4dddn [4eee-X [4gggn	1r	1r	8.ccL 8.dd-X	8.ff-XL	1r	1r	1r	8.cccL 8.ddd-X	1r	1eet	2.eeent	8.eee-XL
.	.	.	.	.	.	.	.	.	.	.	.	16ccJk 16dd-	16ff-Jk	.	.	.	16cccJk 16ddd-	.	.	.	16eee-Jk
.	.	.	.	.	.	.	.	.	4r	.	.	[4cc [4dd-	[4ff-	.	.	.	[4ccc [4ddd-	.	.	.	[4eee-
.	.	.	.	.	.	.	.	.	2r	.	.	8cc] 8dd-]	8ff-]	.	.	.	8cccL] 8ddd-]	.	.	.	8eee-L]
.	.	.	.	.	.	.	.	.	.	.	.	8r	8r	.	.	.	8ccc 8ddd-	.	.	.	8eee-
.	.	.	.	.	.	.	.	.	.	.	.	16ccKL 16dd-	16ff-KL	.	.	.	8ccc 8ddd-	.	.	8eee	8eee-
.	.	.	.	.	.	.	.	.	.	.	.	8.ccJ 8.dd-	8.ff-J	.	.	.	.	.	.	.	.
.	.	.	.	.	.	.	.	.	.	.	.	.	.	.	.	.	8cccJ 8ddd-	.	.	8r	8eee-J
=8	=8	=8	=8	=8	=8	=8	=8	=8	=8	=8	=8	=8	=8	=8	=8	=8	=8	=8	=8	=8	=8
!!pagebreak:original
4CC 4GG-X 4BB-X 4E-X	1r	1r	1r	1r	1r	.	1r	4CC 4GG-X 4BB-X 4E-X	2r	4CC	4GG-X 4BB-X 4E-X	4cc 4dd-X	4ff-X	1r	1r	1r	4..ccc 4..ddd-X	1r	1eet	2.eeent	4..eee-X
4r	.	.	.	.	.	.	.	4r	.	4r	4r	4r	4r	.	.	.	.	.	.	.	.
.	.	.	.	.	.	.	.	.	.	.	.	.	.	.	.	.	[16ccc [16ddd-	.	.	.	[16eee-
2r	.	.	.	.	.	.	.	2r	4r	2r	2r	4r	4r	.	.	.	4.ccc] 4.ddd-]	.	.	.	4.eee-]
.	.	.	.	.	.	.	.	.	8r	.	.	8r	8r	.	.	.	.	.	.	8eee	.
.	.	.	.	.	.	.	.	.	[8dddn [8eee-X [8gggn	.	.	[8cc [8dd-	[8ff-	.	.	.	[8ccc [8ddd-	.	.	8r	[8eee-
=9	=9	=9	=9	=9	=9	=9	=9	=9	=9	=9	=9	=9	=9	=9	=9	=9	=9	=9	=9	=9	=9
2r	1r	1r	1r	1r	1r	.	1r	2r	8ddd] 8eee-] 8ggg]	2r	2r	8cc] 8dd-]	8ff-]	1r	1r	1r	8cccL] 8ddd-]	1r	1eet	2.eeent	8eee-L]
.	.	.	.	.	.	.	.	.	8r	.	.	4r	4r	.	.	.	12ccc 12ddd-X	.	.	.	12eee-X
.	.	.	.	.	.	.	.	.	.	.	.	.	.	.	.	.	12ccc 12ddd-	.	.	.	12eee-
.	.	.	.	.	.	.	.	.	4r	.	.	.	.	.	.	.	.	.	.	.	.
.	.	.	.	.	.	.	.	.	.	.	.	.	.	.	.	.	12ccc 12ddd-	.	.	.	12eee-
.	.	.	.	.	.	.	.	.	.	.	.	[8cc [8dd-X	[8ff-X	.	.	.	[8cccJ [8ddd-	.	.	.	[8eee-J
4r	.	.	.	.	.	.	.	4r	2r	4r	4r	4cc] 4dd-]	4ff-]	.	.	.	4ccc] 4ddd-]	.	.	.	4eee-]
4CC 4GG-X 4BB-X 4E-X	.	.	.	.	.	.	.	4CC 4GG-X 4BB-X 4E-X	.	4CC	4GG-X 4BB-X 4E-X	4r	4r	.	.	.	4r	.	.	8eee	4r
.	.	.	.	.	.	.	.	.	.	.	.	.	.	.	.	.	.	.	.	8r	.
=10	=10	=10	=10	=10	=10	=10	=10	=10	=10	=10	=10	=10	=10	=10	=10	=10	=10	=10	=10	=10	=10
1r	1r	1r	1r	1r	1r	.	1r	1r	[4dddn [4eee-X [4gggn	1r	1r	8.ccL 8.dd-X	8.ff-XL	1r	1r	1r	8.cccL 8.ddd-X	1r	1eet	2.eeent	8.eee-XL
.	.	.	.	.	.	.	.	.	.	.	.	16ccJk 16dd-	16ff-Jk	.	.	.	16cccJk 16ddd-	.	.	.	16eee-Jk
.	.	.	.	.	.	.	.	.	4r	.	.	[4cc [4dd-	[4ff-	.	.	.	[4ccc [4ddd-	.	.	.	[4eee-
.	.	.	.	.	.	.	.	.	2r	.	.	8cc] 8dd-]	8ff-]	.	.	.	8cccL] 8ddd-]	.	.	.	8eee-L]
.	.	.	.	.	.	.	.	.	.	.	.	8r	8r	.	.	.	8ccc 8ddd-	.	.	.	8eee-
.	.	.	.	.	.	.	.	.	.	.	.	16ccKL 16dd-	16ff-KL	.	.	.	8ccc 8ddd-	.	.	8eee	8eee-
.	.	.	.	.	.	.	.	.	.	.	.	8.ccJ 8.dd-	8.ff-J	.	.	.	.	.	.	.	.
.	.	.	.	.	.	.	.	.	.	.	.	.	.	.	.	.	8cccJ 8ddd-	.	.	8r	8eee-J
=11	=11	=11	=11	=11	=11	=11	=11	=11	=11	=11	=11	=11	=11	=11	=11	=11	=11	=11	=11	=11	=11
.	.	.	.	.	.	.	.	.	.	.	.	.	.	8qe/L	8qB#X/L	8qf#X/L	.	8qe/L	.	.	.
.	.	.	.	.	.	.	.	.	.	.	.	.	.	8qfn/J	8qcn/J	8qgn/J	.	8qfn/J	.	.	.
4r	1r	1r	1r	1r	1r	.	1r	4r	[4dddn [4eee-X [4gggn	4r	4r	4cc 4dd-X	4ff-X	(2.gn	(2.d	(2.a	4..ccc 4..ddd-X	(2.g	1eet	2.eeent	4..eee-X
4CC 4GG-X 4BB-X 4E-X	.	.	.	.	.	.	.	4CC 4GG-X 4BB-X 4E-X	4r	4CC	4GG-X 4BB-X 4E-X	4r	4r	.	.	.	.	.	.	.	.
.	.	.	.	.	.	.	.	.	.	.	.	.	.	.	.	.	[16ccc [16ddd-	.	.	.	[16eee-
2r	.	.	.	.	.	.	.	2r	4r	2r	2r	4r	4r	.	.	.	4.ccc] 4.ddd-]	.	.	.	4.eee-]
.	.	.	.	.	.	.	.	.	8r	.	.	8r	8r	4g-X)	4c#X)	4g#X)	.	4f#X)	.	8eee	.
.	.	.	.	.	.	.	.	.	[8ddd [8eee- [8ggg	.	.	[8cc [8dd-	[8ff-	.	.	.	[8ccc [8ddd-	.	.	8r	[8eee-
==	==	==	==	==	==	==	==	==	==	==	==	==	==	==	==	==	==	==	==	==	==
*-	*-	*-	*-	*-	*-	*-	*-	*-	*-	*-	*-	*-	*-	*-	*-	*-	*-	*-	*-	*-	*-
!!!CDT: 1892/03/10-1955/11/27
!!!CBL: Le Havre, France
!!!CDL: Paris, France
!!!CNT: Swiss, French
!!!AGN: Orchestral; Symphonic
!!!MCN: Münch, Charles
!!!MDT: 1946/08/17
!!!MGN: Orchestra de la Tonhalle et du Théatre
!!!MLC: Zürich, Switzerland
!!!MPD: 1946
!!!MPN:
!!!ODT: 1946
!!!PDT: 1946
!!!excerpt-start-measure: 5
!!!excerpt-end-measure: 13
!!!excerpt-start-time: 0:08
!!!excerpt-end-time: 0:23
!!!EEV: 2020/01/17
!!!system-decoration: [([(s1,s2)]s3,s4,s5,s6,s7)][(s8,s9,s10,s11,s12)]{(s13,s14)}[(s15,s16)][(s17,s18,s19,s20,s21)]
!!!ONB: Converted from MusicXML on 2020/01/17
